X:237
T:Milliner's Daughter
Z: id:dc-reel-217
M:C
L:1/8
K:G Major
G2BG DFAF|G2eg fdcA|G2BG DFAB|cAFG AGGD|!
G2BG DFAF|G2eg fdcA|GBB2 FAA2|cAFG AGG2|]!
dgg2 dgg2|dff2 dff2|dgg2 dgg2|d^cde fd=cA|!
dgg2 bgag|fdde f3g|afge fde^c|d^cde fd=cA|]!

